X:8
T:Flowers of the Forest, The
T:(Old Air)
C:arr. Carlo Minasi
M:C
L:1/8
B:Chappell's One Hundred Scotch Melodies
B:Arranged for the Concertina by Carlo Minasi
Q:"Adagio  "1/4=80
Z:Peter Dunk 2012
K:G
!p!G2 (GG ABde)|(dBAG) (E2D2)|\
G2 (GG ABde)|(dB)([AC]>[GB,])[G4B,4]||
(DE=FF) (EFGG)|(DDB(A) GED) >D |\
(D2 EG) ([e2c2] [dB]B)|"rall."[A2D2] ([AD][B/G/][A/D/]) [G4B,4]||

